; generated by Slic3r 1.3.0 on 2020-04-30 at 13:45:03

; external perimeters extrusion width = 0.44mm (3.38mm^3/s)
; perimeters extrusion width = 0.48mm (7.54mm^3/s)
; infill extrusion width = 0.48mm (10.05mm^3/s)
; solid infill extrusion width = 0.48mm (2.51mm^3/s)
; top infill extrusion width = 0.48mm (1.88mm^3/s)

M107
M190 S75 ; set bed temperature and wait for it to be reached
M104 S225 ; set temperature
G28 ; home all axes
G1 Z5 F5000 ; lift nozzle

; Filament gcode

M109 S225 ; set temperature and wait for it to be reached
G21 ; set units to millimeters
G90 ; use absolute coordinates
M82 ; use absolute distances for extrusion
G92 E0
G1 Z0.350 F7800.000
G1 E-2.00000 F2400.00000
G92 E0
G1 X26.759 Y26.693 F7800.000
G1 E2.00000 F2400.00000
G1 F1800
G1 X27.107 Y26.345 E2.04471
G1 X29.426 Y24.589 E2.30918
G1 X32.134 Y23.528 E2.57366
G1 X34.894 Y23.237 E2.82606
G1 X53.856 Y23.727 E4.55082
G1 X55.243 Y23.854 E4.67747
G1 X59.023 Y24.453 E5.02541
G1 X61.168 Y25.028 E5.22737
G1 X64.740 Y26.399 E5.57526
G1 X66.719 Y27.407 E5.77721
G1 X69.928 Y29.491 E6.12515
G1 X71.654 Y30.889 E6.32709
G1 X167.697 Y126.932 E18.67769
G1 X169.095 Y128.658 E18.87965
G1 X171.179 Y131.867 E19.22756
G1 X172.187 Y133.847 E19.42957
G1 X173.558 Y137.418 E19.77745
G1 X174.133 Y139.563 E19.97932
G1 X174.732 Y143.347 E20.32767
G1 X174.816 Y144.015 E20.38894
G1 X176.721 Y164.391 E22.24981
G1 X176.592 Y167.297 E22.51429
G1 X175.681 Y170.059 E22.77876
G1 X173.655 Y172.893 E23.09553
G1 X172.893 Y173.655 E23.19349
G1 X170.574 Y175.411 E23.45797
G1 X167.866 Y176.472 E23.72245
G1 X164.391 Y176.721 E24.03921
G1 X144.015 Y174.816 E25.90008
G1 X143.347 Y174.732 E25.96135
G1 X139.563 Y174.133 E26.30970
G1 X137.418 Y173.558 E26.51157
G1 X133.847 Y172.187 E26.85945
G1 X131.867 Y171.179 E27.06146
G1 X128.658 Y169.095 E27.40936
G1 X126.932 Y167.697 E27.61133
G1 X30.889 Y71.654 E39.96193
G1 X29.491 Y69.928 E40.16387
G1 X28.680 Y68.680 E40.29920
G1 X27.407 Y66.719 E40.51181
G1 X26.399 Y64.740 E40.71376
G1 X25.028 Y61.168 E41.06165
G1 X24.453 Y59.023 E41.26361
G1 X23.854 Y55.243 E41.61154
G1 X23.727 Y53.856 E41.73820
G1 X23.237 Y34.894 E43.46295
G1 X23.560 Y32.004 E43.72743
G1 X24.656 Y29.309 E43.99191
G1 X26.345 Y27.107 E44.24431
G1 X26.717 Y26.735 E44.29211
G1 E42.29211 F2400.00000
G92 E0
G1 X136.272 Y133.150 F7800.000
G1 E2.00000 F2400.00000
G1 F1800
G1 X137.169 Y132.423 E2.10501
G1 X140.176 Y130.890 E2.41192
G1 X143.436 Y130.017 E2.71881
G1 X146.807 Y129.841 E3.02573
G1 X150.140 Y130.369 E3.33261
G1 X153.291 Y131.578 E3.63949
G1 X156.122 Y133.416 E3.94636
G1 X158.508 Y135.802 E4.25323
G1 X160.346 Y138.633 E4.56010
G1 X161.555 Y141.783 E4.86698
G1 X162.083 Y145.117 E5.17386
G1 X161.907 Y148.488 E5.48078
G1 X161.034 Y151.748 E5.78767
G1 X159.501 Y154.755 E6.09456
G1 X157.377 Y157.377 E6.40144
G1 X154.755 Y159.501 E6.70832
G1 X151.748 Y161.034 E7.01521
G1 X148.488 Y161.907 E7.32209
G1 X145.117 Y162.083 E7.62902
G1 X141.784 Y161.555 E7.93589
G1 X138.633 Y160.346 E8.24278
G1 X135.802 Y158.508 E8.54964
G1 X133.416 Y156.122 E8.85652
G1 X131.578 Y153.291 E9.16339
G1 X130.369 Y150.140 E9.47027
G1 X129.841 Y146.807 E9.77714
G1 X130.017 Y143.436 E10.08407
G1 X130.890 Y140.176 E10.39096
G1 X132.423 Y137.169 E10.69787
G1 X133.150 Y136.272 E10.80288
G1 X134.875 Y134.875 E11.00471
G1 X136.234 Y133.197 E11.20109
G1 X136.716 Y133.594 F7800.000
G1 F1800
G1 X137.511 Y132.950 E11.29416
G1 X140.401 Y131.477 E11.58911
G1 X143.535 Y130.637 E11.88405
G1 X146.774 Y130.468 E12.17903
G1 X149.978 Y130.975 E12.47396
G1 X153.006 Y132.138 E12.76890
G1 X155.726 Y133.904 E13.06383
G1 X158.020 Y136.198 E13.35875
G1 X159.786 Y138.918 E13.65368
G1 X160.948 Y141.946 E13.94862
G1 X161.456 Y145.150 E14.24355
G1 X161.287 Y148.389 E14.53853
G1 X160.447 Y151.522 E14.83347
G1 X158.975 Y154.413 E15.12841
G1 X156.933 Y156.933 E15.42335
G1 X154.413 Y158.975 E15.71829
G1 X151.522 Y160.447 E16.01323
G1 X148.389 Y161.287 E16.30817
G1 X145.150 Y161.456 E16.60315
G1 X141.946 Y160.948 E16.89809
G1 X138.918 Y159.786 E17.19302
G1 X136.198 Y158.020 E17.48795
G1 X133.904 Y155.726 E17.78288
G1 X132.138 Y153.006 E18.07780
G1 X130.975 Y149.978 E18.37274
G1 X130.468 Y146.774 E18.66767
G1 X130.637 Y143.535 E18.96266
G1 X131.477 Y140.401 E19.25760
G1 X132.950 Y137.511 E19.55254
G1 X133.594 Y136.716 E19.64561
G1 X135.319 Y135.319 E19.84746
G1 X136.679 Y133.641 E20.04386
G1 X136.716 Y133.594 F7800.000
G1 E18.04386 F2400.00000
G92 E0
G1 X137.564 Y131.026 F7800.000
G1 E2.00000 F2400.00000
G1 F1800
G1 X138.051 Y130.895 E2.04585
G1 X138.172 Y131.210 E2.07654
G1 X136.948 Y131.834 E2.20141
G1 X136.755 Y131.641 E2.22618
G1 X137.379 Y130.418 E2.35105
G1 X137.694 Y130.539 E2.38175
G1 X137.579 Y130.968 E2.42214
G1 E0.42214 F2400.00000
G92 E0
G1 X134.572 Y134.256 F7800.000
G1 E2.00000 F2400.00000
G1 F1800
G1 X134.431 Y134.431 E2.02044
G1 X134.256 Y134.572 E2.04088
G1 X134.017 Y134.333 E2.07158
G1 X134.159 Y134.159 E2.09202
G1 X134.333 Y134.017 E2.11245
G1 X134.530 Y134.214 E2.13770
G1 E0.13770 F2400.00000
G92 E0
G1 X131.026 Y137.564 F7800.000
G1 E2.00000 F2400.00000
G1 F1800
G1 X130.539 Y137.694 E2.04584
G1 X130.418 Y137.379 E2.07654
G1 X131.641 Y136.755 E2.20141
G1 X131.834 Y136.948 E2.22618
G1 X131.210 Y138.172 E2.35105
G1 X130.895 Y138.051 E2.38175
G1 X131.010 Y137.622 E2.42214
G1 X130.542 Y136.614 F7800.000
G1 F1800
G1 X128.413 Y137.699 E2.63940
G1 X125.153 Y138.573 E2.94629
G1 X121.782 Y138.749 E3.25321
G1 X118.449 Y138.221 E3.56008
G1 X115.298 Y137.011 E3.86697
G1 X112.468 Y135.173 E4.17384
G1 X110.081 Y132.787 E4.48072
G1 X108.243 Y129.957 E4.78760
G1 X107.034 Y126.806 E5.09449
G1 X106.506 Y123.472 E5.40137
G1 X106.682 Y120.102 E5.70825
G1 X107.556 Y116.842 E6.01514
G1 X109.088 Y113.835 E6.32202
G1 X109.815 Y112.937 E6.42704
G1 X111.540 Y111.540 E6.62890
G1 X112.937 Y109.815 E6.83077
G1 X113.835 Y109.088 E6.93579
G1 X116.842 Y107.556 E7.24267
G1 X120.102 Y106.682 E7.54955
G1 X123.472 Y106.506 E7.85644
G1 X126.806 Y107.034 E8.16332
G1 X129.957 Y108.243 E8.47021
G1 X132.787 Y110.081 E8.77709
G1 X135.173 Y112.468 E9.08397
G1 X137.011 Y115.298 E9.39084
G1 X138.221 Y118.449 E9.69772
G1 X138.749 Y121.782 E10.00460
G1 X138.573 Y125.153 E10.31152
G1 X137.699 Y128.413 E10.61841
G1 X136.167 Y131.420 E10.92532
G1 X135.439 Y132.317 E11.03033
G1 X133.714 Y133.714 E11.23216
G1 X132.317 Y135.439 E11.43400
G1 X131.420 Y136.167 E11.53901
G1 X130.595 Y136.587 E11.62320
G1 X130.258 Y136.058 F7800.000
G1 F1800
G1 X128.188 Y137.113 E11.83449
G1 X125.055 Y137.952 E12.12943
G1 X121.815 Y138.121 E12.42441
G1 X118.612 Y137.614 E12.71934
G1 X115.583 Y136.452 E13.01428
G1 X112.863 Y134.685 E13.30920
G1 X110.570 Y132.392 E13.60414
G1 X108.803 Y129.671 E13.89908
G1 X107.641 Y126.643 E14.19402
G1 X107.133 Y123.439 E14.48896
G1 X107.303 Y120.200 E14.78390
G1 X108.143 Y117.067 E15.07884
G1 X109.615 Y114.177 E15.37378
G1 X110.259 Y113.382 E15.46686
G1 X111.984 Y111.984 E15.66872
G1 X113.382 Y110.259 E15.87058
G1 X114.177 Y109.615 E15.96365
G1 X117.067 Y108.143 E16.25859
G1 X120.200 Y107.303 E16.55353
G1 X123.439 Y107.133 E16.84847
G1 X126.643 Y107.641 E17.14341
G1 X129.671 Y108.803 E17.43835
G1 X132.392 Y110.570 E17.73329
G1 X134.685 Y112.863 E18.02823
G1 X136.452 Y115.583 E18.32315
G1 X137.614 Y118.612 E18.61809
G1 X138.121 Y121.815 E18.91302
G1 X137.952 Y125.055 E19.20800
G1 X137.113 Y128.188 E19.50295
G1 X135.640 Y131.078 E19.79789
G1 X134.995 Y131.873 E19.89096
G1 X133.270 Y133.270 E20.09281
G1 X131.873 Y134.995 E20.29466
G1 X131.078 Y135.640 E20.38773
G1 X130.312 Y136.030 E20.46593
G1 X130.252 Y136.457 F7800.000
G1 E18.46593 F2400.00000
G92 E0
G1 X114.229 Y107.692 F7800.000
G1 E2.00000 F2400.00000
G1 F1800
G1 X114.716 Y107.561 E2.04587
G1 X114.837 Y107.876 E2.07657
G1 X113.613 Y108.500 E2.20146
G1 X113.420 Y108.307 E2.22623
G1 X114.044 Y107.083 E2.35112
G1 X114.359 Y107.204 E2.38182
G1 X114.244 Y107.634 E2.42223
G1 E0.42223 F2400.00000
G92 E0
G1 X111.236 Y110.923 F7800.000
G1 E2.00000 F2400.00000
G1 F1800
G1 X111.096 Y111.096 E2.02017
G1 X110.923 Y111.236 E2.04035
G1 X110.685 Y110.997 E2.07105
G1 X110.824 Y110.824 E2.09122
G1 X110.997 Y110.685 E2.11139
G1 X111.193 Y110.881 E2.13664
G1 E0.13664 F2400.00000
G92 E0
G1 X107.692 Y114.229 F7800.000
G1 E2.00000 F2400.00000
G1 F1800
G1 X107.204 Y114.359 E2.04587
G1 X107.083 Y114.044 E2.07656
G1 X108.307 Y113.420 E2.20145
G1 X108.500 Y113.613 E2.22622
G1 X107.876 Y114.837 E2.35111
G1 X107.561 Y114.716 E2.38181
G1 X107.676 Y114.287 E2.42223
G1 X107.208 Y113.279 F7800.000
G1 F1800
G1 X105.078 Y114.364 E2.63956
G1 X101.818 Y115.238 E2.94645
G1 X98.448 Y115.415 E3.25333
G1 X95.115 Y114.887 E3.56021
G1 X91.964 Y113.677 E3.86710
G1 X89.133 Y111.839 E4.17398
G1 X86.747 Y109.452 E4.48087
G1 X84.909 Y106.622 E4.78775
G1 X83.699 Y103.471 E5.09464
G1 X83.171 Y100.138 E5.40152
G1 X83.348 Y96.767 E5.70840
G1 X84.221 Y93.507 E6.01529
G1 X85.754 Y90.500 E6.32217
G1 X86.480 Y89.603 E6.42719
G1 X88.206 Y88.206 E6.62905
G1 X89.603 Y86.480 E6.83092
G1 X90.500 Y85.754 E6.93594
G1 X93.507 Y84.221 E7.24282
G1 X96.767 Y83.348 E7.54970
G1 X100.138 Y83.171 E7.85659
G1 X103.471 Y83.699 E8.16347
G1 X106.622 Y84.909 E8.47036
G1 X109.452 Y86.747 E8.77724
G1 X111.839 Y89.133 E9.08413
G1 X113.677 Y91.964 E9.39101
G1 X114.887 Y95.115 E9.69789
G1 X115.415 Y98.448 E10.00478
G1 X115.238 Y101.818 E10.31166
G1 X114.364 Y105.078 E10.61854
G1 X112.832 Y108.085 E10.92543
G1 X112.105 Y108.983 E11.03045
G1 X110.380 Y110.380 E11.23231
G1 X108.983 Y112.105 E11.43417
G1 X108.085 Y112.832 E11.53919
G1 X107.261 Y113.252 E11.62328
G1 X106.924 Y112.722 F7800.000
G1 F1800
G1 X104.853 Y113.778 E11.83465
G1 X101.720 Y114.617 E12.12959
G1 X98.481 Y114.787 E12.42453
G1 X95.277 Y114.280 E12.71947
G1 X92.249 Y113.117 E13.01441
G1 X89.529 Y111.351 E13.30934
G1 X87.235 Y109.057 E13.60429
G1 X85.469 Y106.337 E13.89922
G1 X84.306 Y103.309 E14.19417
G1 X83.799 Y100.105 E14.48910
G1 X83.969 Y96.866 E14.78404
G1 X84.808 Y93.733 E15.07898
G1 X86.281 Y90.843 E15.37392
G1 X86.925 Y90.047 E15.46700
G1 X88.650 Y88.650 E15.66886
G1 X90.047 Y86.925 E15.87072
G1 X90.843 Y86.281 E15.96380
G1 X93.733 Y84.808 E16.25874
G1 X96.866 Y83.969 E16.55368
G1 X100.105 Y83.799 E16.84862
G1 X103.309 Y84.306 E17.14356
G1 X106.337 Y85.469 E17.43850
G1 X109.057 Y87.235 E17.73344
G1 X111.351 Y89.529 E18.02838
G1 X113.117 Y92.249 E18.32332
G1 X114.280 Y95.277 E18.61826
G1 X114.787 Y98.481 E18.91320
G1 X114.617 Y101.720 E19.20814
G1 X113.778 Y104.853 E19.50308
G1 X112.305 Y107.743 E19.79802
G1 X111.661 Y108.539 E19.89109
G1 X109.936 Y109.936 E20.09295
G1 X108.539 Y111.661 E20.29482
G1 X107.743 Y112.305 E20.38789
G1 X106.978 Y112.695 E20.46601
G1 X106.918 Y113.122 F7800.000
G1 E18.46601 F2400.00000
G92 E0
G1 X90.894 Y84.357 F7800.000
G1 E2.00000 F2400.00000
G1 F1800
G1 X91.381 Y84.227 E2.04587
G1 X91.502 Y84.542 E2.07657
G1 X90.279 Y85.165 E2.20145
G1 X90.086 Y84.973 E2.22622
G1 X90.709 Y83.749 E2.35111
G1 X91.025 Y83.870 E2.38181
G1 X90.910 Y84.299 E2.42222
G1 E0.42222 F2400.00000
G92 E0
G1 X87.662 Y87.350 F7800.000
G1 E2.00000 F2400.00000
G1 F1800
G1 X87.901 Y87.589 E2.03070
G1 X87.761 Y87.761 E2.05087
G1 X87.589 Y87.901 E2.07105
G1 X87.350 Y87.662 E2.10175
G1 X87.490 Y87.490 E2.12192
G1 X87.616 Y87.388 E2.13664
G1 E0.13664 F2400.00000
G92 E0
G1 X84.357 Y90.894 F7800.000
G1 E2.00000 F2400.00000
G1 F1800
G1 X83.870 Y91.025 E2.04587
G1 X83.749 Y90.709 E2.07656
G1 X84.973 Y90.086 E2.20145
G1 X85.165 Y90.279 E2.22622
G1 X84.542 Y91.502 E2.35111
G1 X84.227 Y91.381 E2.38181
G1 X84.342 Y90.952 E2.42222
G1 X83.873 Y89.945 F7800.000
G1 F1800
G1 X81.744 Y91.030 E2.63956
G1 X78.484 Y91.903 E2.94644
G1 X75.113 Y92.080 E3.25333
G1 X71.780 Y91.552 E3.56021
G1 X68.629 Y90.343 E3.86709
G1 X65.799 Y88.504 E4.17398
G1 X63.412 Y86.118 E4.48086
G1 X61.574 Y83.288 E4.78774
G1 X60.365 Y80.137 E5.09463
G1 X59.837 Y76.803 E5.40151
G1 X60.013 Y73.433 E5.70840
G1 X60.887 Y70.173 E6.01528
G1 X62.419 Y67.166 E6.32217
G1 X63.146 Y66.268 E6.42719
G1 X64.871 Y64.871 E6.62905
G1 X66.268 Y63.146 E6.83091
G1 X67.166 Y62.419 E6.93593
G1 X70.173 Y60.887 E7.24281
G1 X73.433 Y60.013 E7.54970
G1 X76.803 Y59.837 E7.85658
G1 X80.137 Y60.365 E8.16346
G1 X83.288 Y61.574 E8.47035
G1 X86.118 Y63.412 E8.77723
G1 X88.504 Y65.799 E9.08412
G1 X90.343 Y68.629 E9.39100
G1 X91.552 Y71.780 E9.69789
G1 X92.080 Y75.113 E10.00477
G1 X91.903 Y78.484 E10.31165
G1 X91.030 Y81.744 E10.61854
G1 X89.498 Y84.751 E10.92542
G1 X88.771 Y85.648 E11.03044
G1 X87.046 Y87.046 E11.23230
G1 X85.648 Y88.771 E11.43416
G1 X84.751 Y89.498 E11.53919
G1 X83.927 Y89.917 E11.62328
G1 X83.590 Y89.388 F7800.000
G1 F1800
G1 X81.519 Y90.443 E11.83464
G1 X78.385 Y91.283 E12.12958
G1 X75.146 Y91.453 E12.42452
G1 X71.943 Y90.945 E12.71946
G1 X68.914 Y89.783 E13.01440
G1 X66.194 Y88.016 E13.30934
G1 X63.901 Y85.723 E13.60428
G1 X62.134 Y83.002 E13.89922
G1 X60.972 Y79.974 E14.19416
G1 X60.464 Y76.770 E14.48910
G1 X60.634 Y73.531 E14.78404
G1 X61.473 Y70.398 E15.07898
G1 X62.946 Y67.508 E15.37392
G1 X63.590 Y66.713 E15.46700
G1 X65.315 Y65.315 E15.66886
G1 X66.713 Y63.590 E15.87072
G1 X67.508 Y62.946 E15.96379
G1 X70.398 Y61.473 E16.25873
G1 X73.531 Y60.634 E16.55367
G1 X76.770 Y60.464 E16.84861
G1 X79.974 Y60.972 E17.14355
G1 X83.002 Y62.134 E17.43849
G1 X85.723 Y63.901 E17.73343
G1 X88.016 Y66.194 E18.02837
G1 X89.783 Y68.914 E18.32331
G1 X90.945 Y71.943 E18.61825
G1 X91.453 Y75.146 E18.91319
G1 X91.283 Y78.385 E19.20813
G1 X90.443 Y81.519 E19.50307
G1 X88.971 Y84.409 E19.79801
G1 X88.326 Y85.204 E19.89109
G1 X86.601 Y86.601 E20.09295
G1 X85.204 Y88.326 E20.29481
G1 X84.409 Y88.971 E20.38789
G1 X83.643 Y89.361 E20.46601
G1 X83.584 Y89.788 F7800.000
G1 E18.46601 F2400.00000
G92 E0
G1 X67.560 Y61.023 F7800.000
G1 E2.00000 F2400.00000
G1 F1800
G1 X68.047 Y60.892 E2.04587
G1 X68.168 Y61.207 E2.07656
G1 X66.944 Y61.831 E2.20145
G1 X66.751 Y61.638 E2.22622
G1 X67.375 Y60.414 E2.35111
G1 X67.690 Y60.535 E2.38181
G1 X67.575 Y60.965 E2.42222
G1 E0.42222 F2400.00000
G92 E0
G1 X64.328 Y64.016 F7800.000
G1 E2.00000 F2400.00000
G1 F1800
G1 X64.566 Y64.254 E2.03070
G1 X64.427 Y64.427 E2.05087
G1 X64.254 Y64.566 E2.07105
G1 X64.016 Y64.328 E2.10174
G1 X64.155 Y64.155 E2.12192
G1 X64.281 Y64.053 E2.13664
G1 E0.13664 F2400.00000
G92 E0
G1 X61.023 Y67.560 F7800.000
G1 E2.00000 F2400.00000
G1 F1800
G1 X60.535 Y67.690 E2.04587
G1 X60.414 Y67.375 E2.07656
G1 X61.638 Y66.751 E2.20145
G1 X61.831 Y66.944 E2.22622
G1 X61.207 Y68.168 E2.35111
G1 X60.892 Y68.047 E2.38180
G1 X61.007 Y67.618 E2.42222
G1 X60.539 Y66.610 F7800.000
G1 F1800
G1 X58.409 Y67.695 E2.63955
G1 X55.149 Y68.569 E2.94644
G1 X51.779 Y68.745 E3.25332
G1 X48.446 Y68.217 E3.56020
G1 X45.295 Y67.008 E3.86709
G1 X42.464 Y65.170 E4.17397
G1 X40.078 Y62.783 E4.48086
G1 X38.240 Y59.953 E4.78774
G1 X37.030 Y56.802 E5.09463
G1 X36.502 Y53.469 E5.40151
G1 X36.679 Y50.098 E5.70839
G1 X37.552 Y46.838 E6.01528
G1 X39.085 Y43.831 E6.32216
G1 X41.209 Y41.209 E6.62904
G1 X43.831 Y39.085 E6.93593
G1 X46.838 Y37.552 E7.24281
G1 X50.098 Y36.679 E7.54970
G1 X53.469 Y36.502 E7.85658
G1 X56.802 Y37.030 E8.16346
G1 X59.953 Y38.240 E8.47035
G1 X62.783 Y40.078 E8.77723
G1 X65.170 Y42.464 E9.08412
G1 X67.008 Y45.295 E9.39100
G1 X68.217 Y48.446 E9.69789
G1 X68.745 Y51.779 E10.00477
G1 X68.569 Y55.149 E10.31165
G1 X67.695 Y58.409 E10.61854
G1 X66.163 Y61.416 E10.92542
G1 X65.436 Y62.314 E11.03044
G1 X63.711 Y63.711 E11.23230
G1 X62.314 Y65.436 E11.43416
G1 X61.416 Y66.163 E11.53918
G1 X60.592 Y66.583 E11.62327
G1 X60.255 Y66.053 F7800.000
G1 F1800
G1 X58.184 Y67.109 E11.83464
G1 X55.051 Y67.948 E12.12958
G1 X51.812 Y68.118 E12.42452
G1 X48.608 Y67.611 E12.71946
G1 X45.580 Y66.448 E13.01440
G1 X42.860 Y64.682 E13.30934
G1 X40.566 Y62.388 E13.60428
G1 X38.799 Y59.668 E13.89922
G1 X37.637 Y56.640 E14.19416
G1 X37.130 Y53.436 E14.48910
G1 X37.299 Y50.197 E14.78404
G1 X38.139 Y47.064 E15.07898
G1 X39.612 Y44.174 E15.37392
G1 X41.653 Y41.653 E15.66886
G1 X44.174 Y39.612 E15.96380
G1 X47.064 Y38.139 E16.25874
G1 X50.197 Y37.299 E16.55368
G1 X53.436 Y37.130 E16.84862
G1 X56.640 Y37.637 E17.14355
G1 X59.668 Y38.799 E17.43849
G1 X62.388 Y40.566 E17.73343
