; generated by Slic3r 1.3.0 on 2020-05-02 at 17:47:04

; external perimeters extrusion width = 0.44mm (3.38mm^3/s)
; perimeters extrusion width = 0.48mm (7.54mm^3/s)
; infill extrusion width = 0.48mm (10.05mm^3/s)
; solid infill extrusion width = 0.48mm (2.51mm^3/s)
; top infill extrusion width = 0.48mm (1.88mm^3/s)

M107
M190 S75 ; set bed temperature and wait for it to be reached
M104 S225 ; set temperature
G28 ; home all axes
G1 Z5 F5000 ; lift nozzle

; Filament gcode

M109 S225 ; set temperature and wait for it to be reached
G21 ; set units to millimeters
G90 ; use absolute coordinates
M82 ; use absolute distances for extrusion
G92 E0
G1 Z0.350 F7800.000
G1 E-2.00000 F2400.00000
G92 E0
G1 X82.141 Y60.328 F7800.000
G1 E2.00000 F2400.00000
G1 F1800
G1 X84.156 Y58.231 E2.26448
G1 X87.454 Y56.468 E2.60446
G1 X89.217 Y55.895 E2.77305
G1 X92.500 Y55.375 E3.07529
G1 X107.500 Y55.375 E4.43923
G1 X110.783 Y55.895 E4.74147
G1 X112.546 Y56.468 E4.91006
G1 X115.164 Y57.737 E5.17454
G1 X117.859 Y60.328 E5.51451
G1 X118.949 Y61.828 E5.68311
G1 X120.320 Y64.393 E5.94759
G1 X120.847 Y66.411 E6.13728
G1 X120.994 Y67.338 E6.22263
G1 X121.119 Y68.646 E6.34208
G1 X123.119 Y128.646 E11.80088
G1 X122.921 Y131.073 E12.02228
G1 X122.540 Y132.986 E12.19968
G1 X120.954 Y136.816 E12.57665
G1 X119.870 Y138.439 E12.75405
G1 X116.939 Y141.370 E13.13097
G1 X115.316 Y142.454 E13.30837
G1 X111.486 Y144.040 E13.68535
G1 X109.573 Y144.421 E13.86274
G1 X107.500 Y144.625 E14.05213
G1 X92.500 Y144.625 E15.41608
G1 X90.427 Y144.421 E15.60547
G1 X88.514 Y144.040 E15.78286
G1 X84.684 Y142.454 E16.15984
G1 X83.061 Y141.370 E16.33723
G1 X80.130 Y138.439 E16.71414
G1 X79.046 Y136.816 E16.89155
G1 X77.460 Y132.986 E17.26852
G1 X77.079 Y131.073 E17.44593
G1 X76.881 Y128.646 E17.66733
G1 X78.881 Y68.646 E23.12613
G1 X79.006 Y67.338 E23.24558
G1 X79.153 Y66.411 E23.33093
G1 X79.996 Y63.628 E23.59541
G1 X81.051 Y61.828 E23.78509
G1 X82.106 Y60.376 E23.94823
G1 E21.94823 F2400.00000
G92 E0
G1 X95.024 Y114.576 F7800.000
G1 E2.00000 F2400.00000
G1 F1800
G1 X93.623 Y116.332 E2.20424
G1 X91.377 Y116.332 E2.40848
G1 X89.976 Y114.576 E2.61273
G1 X90.476 Y112.386 E2.81697
G1 X92.500 Y111.412 E3.02121
G1 X94.524 Y112.386 E3.22546
G1 X95.010 Y114.517 E3.42425
G1 X95.024 Y114.576 F7800.000
G1 E1.42425 F2400.00000
G92 E0
G1 X92.500 Y126.023 F7800.000
G1 E2.00000 F2400.00000
G1 F1800
G1 X95.332 Y128.080 E2.31827
G1 X94.250 Y131.409 E2.63655
G1 X90.750 Y131.409 E2.95481
G1 X89.668 Y128.080 E3.27308
G1 X92.451 Y126.058 E3.58590
G1 X92.500 Y126.795 F7800.000
G1 F1800
G1 X94.597 Y128.319 E3.82161
G1 X93.796 Y130.784 E4.05732
G1 X91.204 Y130.784 E4.29302
G1 X90.403 Y128.319 E4.52873
G1 X92.451 Y126.830 E4.75898
G1 X92.500 Y127.567 F7800.000
G1 F1800
G1 X93.863 Y128.557 E4.91212
G1 X93.342 Y130.159 E5.06526
G1 X91.658 Y130.159 E5.21840
G1 X91.137 Y128.557 E5.37154
G1 X92.451 Y127.603 E5.51922
G1 X92.768 Y127.270 F7800.000
G1 E3.51922 F2400.00000
G92 E0
G1 X93.571 Y125.742 F7800.000
G1 E2.00000 F2400.00000
G1 F1800
G1 X94.882 Y126.618 E2.14338
G1 X95.612 Y127.711 E2.26290
G1 X95.869 Y129.000 E2.38243
G1 X95.612 Y130.289 E2.50195
G1 X94.882 Y131.382 E2.62148
G1 X93.789 Y132.112 E2.74100
G1 X92.500 Y132.369 E2.86052
G1 X91.211 Y132.112 E2.98004
G1 X90.118 Y131.382 E3.09957
G1 X89.388 Y130.289 E3.21910
G1 X89.131 Y129.000 E3.33862
G1 X89.388 Y127.711 E3.45814
G1 X90.118 Y126.618 E3.57767
G1 X91.429 Y125.742 E3.72105
G1 X91.100 Y124.657 E3.82414
G1 X91.100 Y117.582 E4.46746
G1 X93.900 Y117.582 E4.72210
G1 X93.900 Y124.657 E5.36542
G1 X93.589 Y125.684 E5.46306
G1 X94.304 Y125.480 F7800.000
G1 F1800
G1 X95.333 Y126.167 E5.57560
G1 X96.201 Y127.467 E5.71773
G1 X96.506 Y129.000 E5.85986
G1 X96.201 Y130.533 E6.00199
G1 X95.333 Y131.833 E6.14412
G1 X94.033 Y132.701 E6.28625
G1 X92.500 Y133.006 E6.42837
G1 X90.967 Y132.701 E6.57050
G1 X89.667 Y131.833 E6.71263
G1 X88.799 Y130.533 E6.85476
G1 X88.494 Y129.000 E6.99689
G1 X88.799 Y127.467 E7.13902
G1 X89.667 Y126.167 E7.28115
G1 X90.696 Y125.480 E7.39369
G1 X90.475 Y124.750 E7.46307
G1 X90.475 Y116.606 E8.20356
G1 X90.726 Y116.518 E8.22775
G1 X91.076 Y116.957 E8.27880
G1 X93.924 Y116.957 E8.53776
G1 X94.274 Y116.518 E8.58881
G1 X94.525 Y116.606 E8.61300
G1 X94.525 Y124.750 E9.35349
G1 X94.321 Y125.422 E9.41742
G1 X95.036 Y125.218 F7800.000
G1 F1800
G1 X95.783 Y125.717 E9.49912
G1 X96.790 Y127.223 E9.66385
G1 X97.143 Y129.000 E9.82859
G1 X96.790 Y130.777 E9.99332
G1 X95.783 Y132.283 E10.15806
G1 X94.277 Y133.290 E10.32279
G1 X92.500 Y133.643 E10.48752
G1 X90.723 Y133.290 E10.65225
G1 X89.217 Y132.283 E10.81699
G1 X88.210 Y130.777 E10.98172
G1 X87.857 Y129.000 E11.14646
G1 X88.210 Y127.223 E11.31119
G1 X89.217 Y125.717 E11.47593
G1 X89.964 Y125.218 E11.55762
G1 X89.850 Y124.842 E11.59329
G1 X89.850 Y116.382 E12.36262
G1 X89.097 Y115.291 E12.48316
G1 X88.887 Y113.561 E12.64156
G1 X89.505 Y111.933 E12.79996
G1 X90.809 Y110.777 E12.95835
G1 X92.500 Y110.360 E13.11675
G1 X94.191 Y110.777 E13.27515
G1 X95.495 Y111.933 E13.43354
G1 X96.113 Y113.561 E13.59194
G1 X95.903 Y115.291 E13.75034
G1 X95.150 Y116.382 E13.87088
G1 X95.150 Y124.842 E14.64020
G1 X95.054 Y125.160 E14.67042
G1 X95.036 Y125.218 F7800.000
G1 X94.639 Y127.039 F7800.000
G1 F1800
G1 X94.552 Y126.948 E14.67436
G1 X93.171 Y125.985 E14.72713
G1 X92.780 Y125.453 F7800.000
G1 F1800
G1 X92.780 Y125.453 E14.72713
G1 X92.071 Y125.239 F7800.000
G1 F1800
G1 X93.275 Y124.035 E14.88875
G1 X93.275 Y123.113 E14.97629
G1 X91.748 Y124.640 E15.18132
G1 X91.725 Y124.564 E15.18888
G1 X91.725 Y123.741 E15.26698
G1 X93.275 Y122.190 E15.47512
G1 X93.275 Y121.268 E15.56266
G1 X91.725 Y122.819 E15.77079
G1 X91.725 Y121.896 E15.85833
G1 X93.275 Y120.346 E16.06646
G1 X93.275 Y119.423 E16.15400
G1 X91.725 Y120.974 E16.36213
G1 X91.725 Y120.052 E16.44967
G1 X93.275 Y118.501 E16.65780
G1 X93.275 Y118.207 E16.68572
G1 X92.647 Y118.207 E16.74534
G1 X91.725 Y119.129 E16.86916
G1 X91.725 Y118.207 E16.95671
G1 E14.95671 F2400.00000
G92 E0
G1 X90.522 Y116.259 F7800.000
G1 E2.00000 F2400.00000
G1 F1800
G1 X89.335 Y114.660 E2.15170
G1 X89.494 Y114.479 F7800.000
G1 F1800
G1 X89.487 Y114.619 E2.15749
G1 X89.650 Y115.542 E2.19625
G1 X89.494 Y114.479 F7800.000
G1 F1800
G1 X89.509 Y114.199 E2.21174
G1 F1800
G1 X89.523 Y113.920 E2.23113
G1 F1800
G1 X89.537 Y113.640 E2.25444
G1 X89.646 Y113.280 E2.28579
G1 F1800
G1 X89.864 Y112.559 E2.33969
G1 F1800
G1 X90.082 Y111.839 E2.38477
G1 X90.132 Y112.019 F7800.000
G1 F1800
G1 X89.586 Y112.599 E2.41823
G1 X90.132 Y112.019 F7800.000
G1 F1800
G1 X90.418 Y111.828 E2.43598
G1 F1800
G1 X90.700 Y111.641 E2.45806
G1 F1800
G1 X91.116 Y111.364 E2.49730
G1 X91.551 Y111.208 E2.53345
G1 F1800
G1 X91.985 Y111.052 E2.56321
G1 F1800
G1 X92.500 Y110.876 E2.59078
G1 X92.798 Y110.974 E2.60667
G1 F1800
G1 X93.232 Y111.130 E2.63642
G1 F1800
G1 X93.884 Y111.364 E2.69078
G1 X94.165 Y111.551 E2.71731
G1 F1800
G1 X94.446 Y111.738 E2.73927
G1 F1800
G1 X94.727 Y111.925 E2.75666
G1 F1800
G1 X94.868 Y112.019 E2.76376
G1 X95.414 Y112.599 E2.79721
G1 X95.136 Y112.559 F7800.000
G1 F1800
G1 X94.918 Y111.839 E2.84670
G1 X95.136 Y112.559 F7800.000
G1 F1800
G1 X95.463 Y113.640 E2.93286
G1 X95.477 Y113.920 E2.95421
G1 F1800
G1 X95.491 Y114.199 E2.97165
G1 F1800
G1 X95.506 Y114.479 E2.98517
G1 F1800
G1 X95.513 Y114.619 E2.99028
G1 X95.350 Y115.542 E3.02455
G1 X95.665 Y114.660 F7800.000
G1 F1800
G1 X94.478 Y116.259 E3.16474
G1 E1.16474 F2400.00000
G92 E0
G1 X91.829 Y125.985 F7800.000
G1 E2.00000 F2400.00000
G1 F1800
G1 X90.448 Y126.948 E2.04525
G1 X90.207 Y127.198 E2.05460
G1 F1800
G1 X90.012 Y127.401 E2.05871
G1 X89.490 Y128.798 F7800.000
G1 F1800
G1 X89.604 Y129.234 E2.06869
G1 F1800
G1 X89.831 Y130.105 E2.10041
G1 X89.909 Y130.266 E2.10669
G1 F1800
G1 X90.065 Y130.587 E2.11442
G1 F1800
G1 X90.221 Y130.908 E2.11730
G1 X91.286 Y131.751 F7800.000
G1 F1800
G1 X91.352 Y131.771 E2.11755
G1 F1800
G1 X91.811 Y131.816 E2.12528
G1 F1800
G1 X92.500 Y131.884 E2.14598
G1 X92.959 Y131.839 E2.15978
G1 F1800
G1 X93.418 Y131.794 E2.16751
G1 F1800
G1 X93.714 Y131.751 E2.16858
G1 X94.779 Y130.908 F7800.000
G1 F1800
G1 X94.857 Y130.748 E2.17002
G1 F1800
G1 X95.013 Y130.427 E2.17775
G1 F1800
G1 X95.169 Y130.105 E2.19032
G1 X95.283 Y129.669 E2.20618
G1 F1800
G1 X95.510 Y128.798 E2.22614
G1 X94.988 Y127.401 F7800.000
G1 F1800
G1 X94.814 Y127.220 E2.22797
G1 F1800
G1 X94.639 Y127.039 E2.23284
G1 E0.23284 F2400.00000
G92 E0
G1 X106.300 Y116.235 F7800.000
G1 E2.00000 F2400.00000
G1 F1800
G1 X104.976 Y114.576 E2.19297
G1 X105.476 Y112.386 E2.39722
G1 X107.500 Y111.412 E2.60146
G1 X109.524 Y112.386 E2.80571
G1 X110.024 Y114.576 E3.00995
G1 X108.623 Y116.332 E3.21420
G1 X106.377 Y116.332 E3.41843
G1 X106.337 Y116.282 E3.42425
G1 X105.937 Y116.404 F7800.000
G1 E1.42425 F2400.00000
G92 E0
G1 X107.500 Y126.023 F7800.000
G1 E2.00000 F2400.00000
G1 F1800
G1 X110.332 Y128.080 E2.31827
G1 X109.250 Y131.409 E2.63655
G1 X105.750 Y131.409 E2.95481
G1 X104.668 Y128.080 E3.27308
G1 X107.451 Y126.058 E3.58590
G1 X107.500 Y126.795 F7800.000
G1 F1800
G1 X109.597 Y128.319 E3.82161
G1 X108.796 Y130.784 E4.05732
G1 X106.204 Y130.784 E4.29302
G1 X105.403 Y128.319 E4.52872
G1 X107.451 Y126.830 E4.75898
G1 X107.500 Y127.567 F7800.000
G1 F1800
G1 X108.863 Y128.557 E4.91212
G1 X108.342 Y130.159 E5.06526
G1 X106.658 Y130.159 E5.21840
G1 X106.137 Y128.557 E5.37154
G1 X107.451 Y127.603 E5.51922
G1 X107.768 Y127.270 F7800.000
G1 E3.51922 F2400.00000
G92 E0
G1 X108.571 Y125.742 F7800.000
G1 E2.00000 F2400.00000
G1 F1800
G1 X109.882 Y126.618 E2.14338
G1 X110.612 Y127.711 E2.26290
G1 X110.869 Y129.000 E2.38243
G1 X110.612 Y130.289 E2.50195
G1 X109.882 Y131.382 E2.62148
G1 X108.789 Y132.112 E2.74100
G1 X107.500 Y132.369 E2.86052
G1 X106.211 Y132.112 E2.98004
G1 X105.118 Y131.382 E3.09957
G1 X104.388 Y130.289 E3.21910
G1 X104.131 Y129.000 E3.33862
G1 X104.388 Y127.711 E3.45814
G1 X105.118 Y126.618 E3.57767
G1 X106.429 Y125.742 E3.72105
G1 X106.100 Y124.657 E3.82414
G1 X106.100 Y117.582 E4.46746
G1 X108.900 Y117.582 E4.72210
G1 X108.900 Y124.657 E5.36542
G1 X108.589 Y125.684 E5.46306
G1 X109.304 Y125.480 F7800.000
G1 F1800
G1 X110.333 Y126.167 E5.57560
G1 X111.201 Y127.467 E5.71773
G1 X111.506 Y129.000 E5.85986
G1 X111.201 Y130.533 E6.00199
G1 X110.333 Y131.833 E6.14412
G1 X109.033 Y132.701 E6.28625
G1 X107.500 Y133.006 E6.42837
G1 X105.967 Y132.701 E6.57050
G1 X104.667 Y131.833 E6.71263
G1 X103.799 Y130.533 E6.85476
G1 X103.494 Y129.000 E6.99689
G1 X103.799 Y127.467 E7.13902
G1 X104.667 Y126.167 E7.28115
G1 X105.696 Y125.480 E7.39369
G1 X105.475 Y124.750 E7.46307
G1 X105.475 Y116.606 E8.20356
G1 X105.726 Y116.518 E8.22775
G1 X106.076 Y116.957 E8.27880
G1 X108.924 Y116.957 E8.53776
G1 X109.274 Y116.518 E8.58881
G1 X109.525 Y116.606 E8.61300
G1 X109.525 Y124.750 E9.35349
G1 X109.321 Y125.422 E9.41742
G1 X110.036 Y125.218 F7800.000
G1 F1800
G1 X110.783 Y125.717 E9.49912
G1 X111.790 Y127.223 E9.66385
G1 X112.143 Y129.000 E9.82859
G1 X111.790 Y130.777 E9.99332
G1 X110.783 Y132.283 E10.15806
G1 X109.277 Y133.290 E10.32279
G1 X107.500 Y133.643 E10.48752
G1 X105.723 Y133.290 E10.65225
G1 X104.217 Y132.283 E10.81699
G1 X103.210 Y130.777 E10.98172
G1 X102.857 Y129.000 E11.14646
G1 X103.210 Y127.223 E11.31119
G1 X104.217 Y125.717 E11.47593
G1 X104.964 Y125.218 E11.55762
G1 X104.850 Y124.842 E11.59330
G1 X104.850 Y116.382 E12.36262
G1 X104.097 Y115.291 E12.48316
G1 X103.887 Y113.561 E12.64156
G1 X104.505 Y111.933 E12.79996
G1 X105.809 Y110.777 E12.95835
G1 X107.500 Y110.360 E13.11675
G1 X109.191 Y110.777 E13.27515
G1 X110.495 Y111.933 E13.43354
G1 X111.113 Y113.561 E13.59194
G1 X110.903 Y115.291 E13.75034
G1 X110.150 Y116.382 E13.87088
G1 X110.150 Y124.842 E14.64020
G1 X110.054 Y125.160 E14.67042
G1 X110.036 Y125.218 F7800.000
G1 X109.639 Y127.039 F7800.000
G1 F1800
G1 X109.552 Y126.948 E14.67436
G1 X108.171 Y125.985 E14.72713
G1 X107.780 Y125.453 F7800.000
G1 F1800
G1 X107.780 Y125.453 E14.72713
G1 X107.071 Y125.239 F7800.000
G1 F1800
G1 X108.275 Y124.035 E14.88875
G1 X108.275 Y123.113 E14.97629
G1 X106.748 Y124.640 E15.18132
G1 X106.725 Y124.564 E15.18888
G1 X106.725 Y123.741 E15.26698
G1 X108.275 Y122.190 E15.47512
G1 X108.275 Y121.268 E15.56266
G1 X106.725 Y122.819 E15.77079
G1 X106.725 Y121.896 E15.85833
G1 X108.275 Y120.346 E16.06646
G1 X108.275 Y119.423 E16.15400
G1 X106.725 Y120.974 E16.36213
G1 X106.725 Y120.052 E16.44967
G1 X108.275 Y118.501 E16.65780
G1 X108.275 Y118.207 E16.68572
G1 X107.647 Y118.207 E16.74534
G1 X106.725 Y119.129 E16.86916
G1 X106.725 Y118.207 E16.95671
G1 E14.95671 F2400.00000
G92 E0
G1 X105.522 Y116.259 F7800.000
G1 E2.00000 F2400.00000
G1 F1800
G1 X104.335 Y114.660 E2.15170
G1 X104.494 Y114.479 F7800.000
G1 F1800
G1 X104.487 Y114.619 E2.15749
G1 X104.650 Y115.542 E2.19625
G1 X104.494 Y114.479 F7800.000
G1 F1800
G1 X104.509 Y114.199 E2.21173
G1 F1800
G1 X104.523 Y113.920 E2.23113
G1 F1800
G1 X104.537 Y113.640 E2.25444
G1 X104.646 Y113.280 E2.28579
G1 F1800
G1 X104.864 Y112.559 E2.33969
G1 F1800
G1 X105.082 Y111.839 E2.38477
G1 X105.132 Y112.019 F7800.000
G1 F1800
G1 X104.586 Y112.599 E2.41823
G1 X105.132 Y112.019 F7800.000
G1 F1800
G1 X105.418 Y111.828 E2.43597
G1 F1800
G1 X105.700 Y111.641 E2.45806
G1 F1800
G1 X106.116 Y111.364 E2.49730
G1 X106.551 Y111.208 E2.53345
G1 F1800
G1 X106.985 Y111.052 E2.56321
G1 F1800
G1 X107.500 Y110.876 E2.59077
G1 X107.798 Y110.974 E2.60667
G1 F1800
G1 X108.232 Y111.130 E2.63642
G1 F1800
G1 X108.884 Y111.364 E2.69078
G1 X109.165 Y111.551 E2.71731
G1 F1800
G1 X109.446 Y111.738 E2.73927
G1 F1800
G1 X109.727 Y111.925 E2.75666
G1 F1800
G1 X109.868 Y112.019 E2.76375
G1 X110.414 Y112.599 E2.79721
G1 X110.136 Y112.559 F7800.000
G1 F1800
G1 X109.918 Y111.839 E2.84670
G1 X110.136 Y112.559 F7800.000
G1 F1800
G1 X110.463 Y113.640 E2.93286
G1 X110.477 Y113.920 E2.95421
G1 F1800
G1 X110.491 Y114.199 E2.97165
G1 F1800
G1 X110.506 Y114.479 E2.98517
G1 F1800
G1 X110.513 Y114.619 E2.99028
G1 X110.350 Y115.542 E3.02455
G1 X110.665 Y114.660 F7800.000
G1 F1800
G1 X109.478 Y116.259 E3.16474
G1 E1.16474 F2400.00000
G92 E0
G1 X106.829 Y125.985 F7800.000
G1 E2.00000 F2400.00000
G1 F1800
G1 X105.448 Y126.948 E2.04525
G1 X105.207 Y127.198 E2.05460
G1 F1800
G1 X105.012 Y127.401 E2.05871
G1 X104.490 Y128.798 F7800.000
G1 F1800
G1 X104.604 Y129.234 E2.06869
G1 F1800
G1 X104.831 Y130.105 E2.10041
G1 X104.909 Y130.266 E2.10669
G1 F1800
G1 X105.065 Y130.587 E2.11442
G1 F1800
G1 X105.221 Y130.908 E2.11730
G1 X106.286 Y131.751 F7800.000
G1 F1800
G1 X106.352 Y131.771 E2.11755
G1 F1800
G1 X106.811 Y131.816 E2.12528
G1 F1800
G1 X107.500 Y131.884 E2.14598
G1 X107.959 Y131.839 E2.15978
G1 F1800
G1 X108.418 Y131.794 E2.16751
G1 F1800
G1 X108.714 Y131.751 E2.16858
G1 X109.779 Y130.908 F7800.000
G1 F1800
G1 X109.857 Y130.748 E2.17002
G1 F1800
G1 X110.013 Y130.427 E2.17775
G1 F1800
G1 X110.169 Y130.105 E2.19032
G1 X110.283 Y129.670 E2.20618
G1 F1800
G1 X110.510 Y128.798 E2.22614
G1 X109.988 Y127.401 F7800.000
G1 F1800
G1 X109.814 Y127.220 E2.22797
G1 F1800
G1 X109.639 Y127.039 E2.23284
G1 E0.23284 F2400.00000
G92 E0
G1 X108.623 Y101.332 F7800.000
G1 E2.00000 F2400.00000
G1 F1800
G1 X106.377 Y101.332 E2.20424
G1 X104.976 Y99.576 E2.40848
G1 X105.476 Y97.386 E2.61273
G1 X107.500 Y96.412 E2.81697
G1 X109.524 Y97.386 E3.02121
G1 X110.024 Y99.576 E3.22545
G1 X108.660 Y101.285 E3.42424
G1 X108.623 Y101.332 F7800.000
G1 E1.42424 F2400.00000
G92 E0
G1 X108.900 Y95.699 F7800.000
G1 E2.00000 F2400.00000
G1 F1800
G1 X107.500 Y95.024 E2.14132
G1 X106.100 Y95.699 E2.28263
G1 X106.100 Y71.166 E4.51337
G1 X108.900 Y71.166 E4.76802
G1 X108.900 Y95.639 E6.99330
G1 E4.99330 F2400.00000
G92 E0
G1 X108.620 Y70.541 F7800.000
G1 E2.00000 F2400.00000
G1 F1800
G1 X109.062 Y69.180 E2.13016
G1 X109.378 Y69.230 E2.15927
G1 X109.378 Y69.975 E2.22701
G1 X109.525 Y69.975 E2.24036
G1 X109.525 Y96.693 E4.66984
G1 X107.500 Y95.718 E4.87423
G1 X105.475 Y96.693 E5.07861
G1 X105.475 Y69.975 E7.50809
G1 X105.622 Y69.975 E7.52144
G1 X105.622 Y69.230 E7.58918
G1 X105.938 Y69.180 E7.61830
G1 X106.380 Y70.541 E7.74845
G1 X108.560 Y70.541 E7.94662
G1 E5.94662 F2400.00000
G92 E0
